app/Images/Svg/like.svg

<svg width="19" height="17" viewBox="0 0 19 17" fill="none" xmlns="http://www.w3.org/2000/svg">
<path d="M9.75 16L9.39645 16.3536C9.59171 16.5488 9.90829 16.5488 10.1036 16.3536L9.75 16ZM2.29442 8.54442L1.94086 8.89797H1.94086L2.29442 8.54442ZM8.54442 2.29442L8.19086 2.64797V2.64797L8.54442 2.29442ZM9.75 3.5L9.39645 3.85355C9.59171 4.04882 9.90829 4.04882 10.1036 3.85355L9.75 3.5ZM10.9556 2.29442L10.602 1.94086V1.94086L10.9556 2.29442ZM10.1036 15.6464L2.64797 8.19086L1.94086 8.89797L9.39645 16.3536L10.1036 15.6464ZM16.852 8.19086L9.39645 15.6464L10.1036 16.3536L17.5591 8.89797L16.852 8.19086ZM8.19086 2.64797L9.39645 3.85355L10.1036 3.14645L8.89797 1.94086L8.19086 2.64797ZM10.1036 3.85355L11.3091 2.64797L10.602 1.94086L9.39645 3.14645L10.1036 3.85355ZM14.0806 0.5C12.7759 0.5 11.5246 1.01829 10.602 1.94086L11.3091 2.64797C12.0442 1.91294 13.0411 1.5 14.0806 1.5V0.5ZM18 5.41942C18 6.45891 17.5871 7.45583 16.852 8.19086L17.5591 8.89797C18.4817 7.9754 19 6.72413 19 5.41942H18ZM19 5.41942C19 2.7025 16.7975 0.5 14.0806 0.5V1.5C16.2452 1.5 18 3.25478 18 5.41942H19ZM5.41942 1.5C6.45891 1.5 7.45583 1.91294 8.19086 2.64797L8.89797 1.94086C7.9754 1.01829 6.72413 0.5 5.41942 0.5V1.5ZM1.5 5.41942C1.5 3.25478 3.25478 1.5 5.41942 1.5V0.5C2.7025 0.5 0.5 2.7025 0.5 5.41942H1.5ZM2.64797 8.19086C1.91294 7.45583 1.5 6.45891 1.5 5.41942H0.5C0.5 6.72413 1.01829 7.9754 1.94086 8.89797L2.64797 8.19086Z" fill="black"/>
</svg>

<svg class='likebtn' width="19" height="17" fill="none" xmlns="http://www.w3.org/2000/svg"><path d="M9.75 16l-.354.354a.5.5 0 00.708 0L9.75 16zM2.294 8.544l-.353.354.353-.354zm6.25-6.25l-.353.354.353-.354zM9.75 3.5l-.354.354a.5.5 0 00.708 0L9.75 3.5zm1.206-1.206l-.354-.353.354.353zm-.852 13.352L2.648 8.191l-.707.707 7.455 7.456.708-.708zm6.748-7.455l-7.456 7.455.708.708 7.455-7.456-.707-.707zM8.191 2.648l1.205 1.206.708-.708-1.206-1.205-.707.707zm1.913 1.206l1.205-1.206-.707-.707-1.206 1.205.708.708zM14.08.5a4.92 4.92 0 00-3.479 1.44l.707.708A3.92 3.92 0 0114.081 1.5v-1zM18 5.42a3.92 3.92 0 01-1.148 2.77l.707.708A4.92 4.92 0 0019 5.419h-1zm1 0A4.92 4.92 0 0014.08.5v1A3.92 3.92 0 0118 5.42h1zM5.42 1.5a3.92 3.92 0 012.77 1.148l.708-.707A4.92 4.92 0 005.419.5v1zM1.5 5.42A3.92 3.92 0 015.42 1.5v-1A4.92 4.92 0 00.5 5.42h1zm1.148 2.77A3.92 3.92 0 011.5 5.42h-1a4.92 4.92 0 001.44 3.478l.708-.707z" fill="#000"/></svg>
